X:1
T:Title
%%score { ( 1 3 ) | ( 2 4 ) }
L:1/8
M:4/4
K:Ab
V:1 treble nm="Grand Piano"
V:3 treble 
V:2 bass 
V:4 bass 
V:1
 z4 z2[Q:1/4=100] [CE][CE] | [CA][CA][CA][CA] [CA][CA][EA]B |[M:3/4] cc cc c2 |[M:1/4] BA | %4
[M:4/4] BBBB BBBB |[M:7/8] [=DB][DA][DG] [DF] E3 |[M:1/4] EE | %7
[M:4/4] [CA][CA][CA][CA] [CA][CA][EA]B |[M:3/4] cc cc c2 |[M:1/4] cd | %10
[M:17/16] e[Ec][EB][EA][FB][FA]3/2FF |[M:3/4] EE GG [CA]2 |[M:1/4] [Ec][DB] |[M:4/4] [CA]6 z2 | %14
[M:3/4] [CE]4 z2 |[M:1/4] AA |[M:4/4] [GB]6 z2 | [Ac]6 z2 | e6 z2 | [FA]4 z4 | c2 c2 B3 [CA] | %21
[M:3/4] [CA]6 |] %22
V:2
 z4 z2 [A,,A,][A,,A,] | [A,,E,][A,,E,][A,,E,][A,,E,] [A,,E,][A,,E,][C,A,][E,G,E] | %2
[M:3/4] [A,E][A,E] [A,E][A,E] [A,E]2 |[M:1/4] [A,D][A,C] | %4
[M:4/4] [E,G,D][E,G,D][E,G,D][E,G,D] [E,G,D][E,G,D][E,G,D][E,G,D] | %5
[M:7/8] [B,,B,][B,,B,][B,,B,] [B,,A,] [E,G,]3 |[M:1/4] [E,G,D][E,G,D] | %7
[M:4/4] [A,,A,][A,,E,][A,,E,][A,,E,] [A,,E,][A,,E,][C,A,][E,G,E] | %8
[M:3/4] [A,E][A,E] [A,E][A,E] [A,E]2 |[M:1/4] [A,E][A,B,E] | %10
[M:17/16] [A,CE][A,,A,][B,,G,][C,A,][D,A,][D,D]3/2[D,A,D][D,A,D] | %11
[M:3/4] [E,A,C][E,A,C] [E,B,D][E,B,D] [A,,A,]2 |[M:1/4] [A,,A,][A,,A,] | %13
[M:4/4] [A,,A,]A,,A,,A,, A,,[A,,A,][A,,A,][A,,A,] |[M:3/4] [A,,A,]A,, C,E, [A,C]2 | %15
[M:1/4] [A,CE][A,CE] |[M:4/4] [E,E]E,E,E, E,[E,B,][E,B,][E,E] | %17
 [A,E]A,A,A, A,2[K:treble] [A,EA][A,DA] | A6[K:bass] z2 | [D,D]D,D,D, [D,A,D]2 [D,A,][D,A,] | %20
 [E,A,E]2 [E,A,E]2 [E,G,D]3 [A,,A,] |[M:3/4] [A,,A,]6 |] %22
V:3
 x8 | x8 |[M:3/4] x6 |[M:1/4] x2 |[M:4/4] x8 |[M:7/8] x7 |[M:1/4] x2 |[M:4/4] x8 |[M:3/4] x6 | %9
[M:1/4] x2 |[M:17/16] x17/2 |[M:3/4] x6 |[M:1/4] x2 |[M:4/4] z A,A,A, A,[DB][CA][DF] | %14
[M:3/4] z A, A,A, A2 |[M:1/4] x2 |[M:4/4] z EEE E[Ge][Gd][GB] | z EEE E2 cd | z CCC C[Ec][EB][EA] | %19
 z DDD F2 [FA][FB] | x8 |[M:3/4] x6 |] %22
V:4
 x8 | x8 |[M:3/4] x6 |[M:1/4] x2 |[M:4/4] x8 |[M:7/8] x7 |[M:1/4] x2 |[M:4/4] x8 |[M:3/4] x6 | %9
[M:1/4] x2 |[M:17/16] x17/2 |[M:3/4] x6 |[M:1/4] x2 |[M:4/4] x8 |[M:3/4] x6 |[M:1/4] x2 | %16
[M:4/4] x8 | x6[K:treble] x2 | [A,C]A,A,[K:bass]A, A,[A,,A,][B,,G,][C,A,] | x8 | x8 |[M:3/4] x6 |] %22

